X:WFS 13-12 19
T:Linky Lanky
S:Frankie
S:Walthamstow session 2013-12-10
Z:<djl@colourcountry.net>
M:6/8
K:Em
[P:A] E2B B2A | G2G AGF | E2B B2A |1 G2A B2F :|2 G2A B2B | c2c B2G | A2G FED | E2B B2A | G2A B2
[P:B] F | G2B d2D | F2G ABc | BcB e2d |1 c2B A2 B2G A2F | G2E FED | E2B B2A | G2A B2 :|2 c2B A2f| g2g f2d | e2B ABc | B3 BcB | AGF E2D 

